chess-client/components/Chess/_/images/whiteQueen.svg

<svg viewBox="0 0 160 160" xmlns="http://www.w3.org/2000/svg"><path fill="#0078d7" d="M72.72 9.42c2.01-2.75 5.12-6.55 8.98-4.99 2.33 1.33 4.35 3.35 5.61 5.72 1.27 2.98-1.34 5.37-3.1 7.39 2.89 4.6 5.77 9.22 8.6 13.86 4.92-2.61 9.78-5.31 14.69-7.92-.98-2.31-2.57-5.22-.63-7.51 1.86-2 4.41-3.46 7.08-4.04 3.99-.26 5.9 4.04 7.12 7.14 1.21 3.64-2.46 5.83-5.09 7.31-1.33 5.51-2.39 11.08-3.6 16.62 5.23.01 10.45-.03 15.68.04-1.81 9.3-3.36 18.64-5.06 27.96h-11v12H98.08v11H112v16c-1.86 0-3.71 0-5.56.01 3.82 7.33 7.64 14.66 11.47 21.99H128v16H32v-16h10.09c3.83-7.33 7.65-14.66 11.47-21.99-1.85-.01-3.71-.01-5.56-.01V94h13.92V83H48V71H37c-1.7-9.32-3.25-18.66-5.06-27.96 5.07-.07 10.15-.03 15.22-.04-1.28-5.55-2.15-11.2-3.65-16.69-1.85-2.26-5.6-3.67-5.15-7.17.62-2.79 2.48-5.31 4.69-7.09 3.47-2.08 7.13 1.05 9.55 3.36 2.34 2.36.67 5.65-.76 7.98 5.1 2.8 10.13 5.72 15.28 8.43 2.73-4.77 5.72-9.37 8.61-14.04-2.11-2.15-5.07-5.16-3.01-8.36m2.93 2.48c1.4 1.36 2.81 2.72 4.24 4.05 1.37-1.34 2.72-2.69 4.05-4.06a229.69 229.69 0 0 0-4.03-4.24 155.21 155.21 0 0 0-4.26 4.25m-33.62 7.71c1.55 1.27 3.16 2.46 4.81 3.6 1.13-1.66 2.24-3.32 3.31-5.01-1.63-1.06-3.27-2.11-4.94-3.12-1.07 1.5-2.13 3.01-3.18 4.53m68.06-1.32c-.31 2.03 1.73 3.65 2.63 5.35 1.49-.9 3.03-1.75 4.42-2.81-.06-1.94-1.55-3.52-2.33-5.23-1.61.82-3.28 1.59-4.72 2.69M69.6 37.86c-7.29-3.87-14.26-8.38-21.8-11.77.95 5.67 2.3 11.26 3.43 16.9 19.02.02 38.04 0 57.05.02 1.14-5.5 2.46-10.96 3.35-16.51-7.5 2.45-13.92 7.29-21.03 10.63-2.34-6.65-6.56-12.43-10.54-18.18-4.05 5.94-8.71 11.81-10.46 18.91M36.78 47c1.18 6.67 2.39 13.32 3.56 19.99 26.44.02 52.88.01 79.32 0 1.17-6.67 2.38-13.32 3.56-19.99H36.78M52 71v8h56v-8H52m13.92 12v11h28.16V83H65.92M52 98v8h56v-8H52m6.08 12c-3.82 7.33-7.66 14.66-11.47 21.99 22.26.01 44.52.01 66.78 0-3.82-7.33-7.64-14.66-11.47-21.99H58.08M36 136v8h88v-8H36z"/><path d="M75.65 11.9c1.39-1.44 2.81-2.86 4.26-4.25 1.36 1.4 2.71 2.81 4.03 4.24-1.33 1.37-2.68 2.72-4.05 4.06-1.43-1.33-2.84-2.69-4.24-4.05zm-33.62 7.71c1.05-1.52 2.11-3.03 3.18-4.53 1.67 1.01 3.31 2.06 4.94 3.12a180.48 180.48 0 0 1-3.31 5.01 73.398 73.398 0 0 1-4.81-3.6zm68.06-1.32c1.44-1.1 3.11-1.87 4.72-2.69.78 1.71 2.27 3.29 2.33 5.23-1.39 1.06-2.93 1.91-4.42 2.81-.9-1.7-2.94-3.32-2.63-5.35zM69.6 37.86c1.75-7.1 6.41-12.97 10.46-18.91 3.98 5.75 8.2 11.53 10.54 18.18 7.11-3.34 13.53-8.18 21.03-10.63-.89 5.55-2.21 11.01-3.35 16.51-19.01-.02-38.03 0-57.05-.02-1.13-5.64-2.48-11.23-3.43-16.9 7.54 3.39 14.51 7.9 21.8 11.77zM36.78 47h86.44c-1.18 6.67-2.39 13.32-3.56 19.99-26.44.01-52.88.02-79.32 0-1.17-6.67-2.38-13.32-3.56-19.99zM52 71h56v8H52v-8zm13.92 12h28.16v11H65.92V83zM52 98h56v8H52v-8zm6.08 12h43.84c3.83 7.33 7.65 14.66 11.47 21.99-22.26.01-44.52.01-66.78 0 3.81-7.33 7.65-14.66 11.47-21.99zM36 136h88v8H36v-8z" fill="#fff"/></svg>

<?xml version="1.0" encoding="UTF-8" ?>
<!DOCTYPE svg PUBLIC "-//W3C//DTD SVG 1.1//EN" "http://www.w3.org/Graphics/SVG/1.1/DTD/svg11.dtd">
<svg width="160pt" height="160pt" viewBox="0 0 160 160" version="1.1" xmlns="http://www.w3.org/2000/svg">
<g id="#0078d7ff">
<path fill="#0078d7" opacity="1.00" d=" M 72.72 9.42 C 74.73 6.67 77.84 2.87 81.70 4.43 C 84.03 5.76 86.05 7.78 87.31 10.15 C 88.58 13.13 85.97 15.52 84.21 17.54 C 87.10 22.14 89.98 26.76 92.81 31.40 C 97.73 28.79 102.59 26.09 107.50 23.48 C 106.52 21.17 104.93 18.26 106.87 15.97 C 108.73 13.97 111.28 12.51 113.95 11.93 C 117.94 11.67 119.85 15.97 121.07 19.07 C 122.28 22.71 118.61 24.90 115.98 26.38 C 114.65 31.89 113.59 37.46 112.38 43.00 C 117.61 43.01 122.83 42.97 128.06 43.04 C 126.25 52.34 124.70 61.68 123.00 71.00 C 119.33 71.00 115.66 71.00 112.00 71.00 C 112.00 75.00 112.00 79.00 112.00 83.00 C 107.36 83.00 102.72 83.00 98.08 83.00 C 98.08 86.67 98.08 90.33 98.08 94.00 C 102.72 94.00 107.36 94.00 112.00 94.00 C 112.00 99.33 112.00 104.66 112.00 110.00 C 110.14 110.00 108.29 110.00 106.44 110.01 C 110.26 117.34 114.08 124.67 117.91 132.00 C 121.27 132.00 124.64 132.00 128.00 132.00 C 128.00 137.33 128.00 142.67 128.00 148.00 C 96.00 148.00 64.00 148.00 32.00 148.00 C 32.00 142.67 32.00 137.33 32.00 132.00 C 35.36 132.00 38.73 132.00 42.09 132.00 C 45.92 124.67 49.74 117.34 53.56 110.01 C 51.71 110.00 49.85 110.00 48.00 110.00 C 48.00 104.66 48.00 99.33 48.00 94.00 C 52.64 94.00 57.28 94.00 61.92 94.00 C 61.92 90.33 61.92 86.67 61.92 83.00 C 57.28 83.00 52.64 83.00 48.00 83.00 C 48.00 79.00 48.00 75.00 48.00 71.00 C 44.33 71.00 40.67 71.00 37.00 71.00 C 35.30 61.68 33.75 52.34 31.94 43.04 C 37.01 42.97 42.09 43.01 47.16 43.00 C 45.88 37.45 45.01 31.80 43.51 26.31 C 41.66 24.05 37.91 22.64 38.36 19.14 C 38.98 16.35 40.84 13.83 43.05 12.05 C 46.52 9.97 50.18 13.10 52.60 15.41 C 54.94 17.77 53.27 21.06 51.84 23.39 C 56.94 26.19 61.97 29.11 67.12 31.82 C 69.85 27.05 72.84 22.45 75.73 17.78 C 73.62 15.63 70.66 12.62 72.72 9.42 M 75.65 11.90 C 77.05 13.26 78.46 14.62 79.89 15.95 C 81.26 14.61 82.61 13.26 83.94 11.89 C 82.62 10.46 81.27 9.05 79.91 7.65 C 78.46 9.04 77.04 10.46 75.65 11.90 M 42.03 19.61 C 43.58 20.88 45.19 22.07 46.84 23.21 C 47.97 21.55 49.08 19.89 50.15 18.20 C 48.52 17.14 46.88 16.09 45.21 15.08 C 44.14 16.58 43.08 18.09 42.03 19.61 M 110.09 18.29 C 109.78 20.32 111.82 21.94 112.72 23.64 C 114.21 22.74 115.75 21.89 117.14 20.83 C 117.08 18.89 115.59 17.31 114.81 15.60 C 113.20 16.42 111.53 17.19 110.09 18.29 M 69.60 37.86 C 62.31 33.99 55.34 29.48 47.80 26.09 C 48.75 31.76 50.10 37.35 51.23 42.99 C 70.25 43.01 89.27 42.99 108.28 43.01 C 109.42 37.51 110.74 32.05 111.63 26.50 C 104.13 28.95 97.71 33.79 90.60 37.13 C 88.26 30.48 84.04 24.70 80.06 18.95 C 76.01 24.89 71.35 30.76 69.60 37.86 M 36.78 47.00 C 37.96 53.67 39.17 60.32 40.34 66.99 C 66.78 67.01 93.22 67.00 119.66 66.99 C 120.83 60.32 122.04 53.67 123.22 47.00 C 94.41 47.00 65.59 47.00 36.78 47.00 M 52.00 71.00 C 52.00 73.67 52.00 76.33 52.00 79.00 C 70.67 79.00 89.33 79.00 108.00 79.00 C 108.00 76.33 108.00 73.67 108.00 71.00 C 89.33 71.00 70.67 71.00 52.00 71.00 M 65.92 83.00 C 65.92 86.67 65.92 90.33 65.92 94.00 C 75.30 94.00 84.69 94.00 94.08 94.00 C 94.08 90.33 94.08 86.67 94.08 83.00 C 84.69 83.00 75.31 83.00 65.92 83.00 M 52.00 98.00 C 52.00 100.67 52.00 103.33 52.00 106.00 C 70.67 106.00 89.33 106.00 108.00 106.00 C 108.00 103.33 108.00 100.67 108.00 98.00 C 89.33 98.00 70.67 98.00 52.00 98.00 M 58.08 110.00 C 54.26 117.33 50.42 124.66 46.61 131.99 C 68.87 132.00 91.13 132.00 113.39 131.99 C 109.57 124.66 105.75 117.33 101.92 110.00 C 87.31 110.00 72.69 110.00 58.08 110.00 M 36.00 136.00 C 36.00 138.67 36.00 141.33 36.00 144.00 C 65.33 144.00 94.67 144.00 124.00 144.00 C 124.00 141.33 124.00 138.67 124.00 136.00 C 94.67 136.00 65.33 136.00 36.00 136.00 Z" />
</g>
<g id="#ffffffff">
<path fill="#ffffff" opacity="1.00" d=" M 75.65 11.90 C 77.04 10.46 78.46 9.04 79.91 7.65 C 81.27 9.05 82.62 10.46 83.94 11.89 C 82.61 13.26 81.26 14.61 79.89 15.95 C 78.46 14.62 77.05 13.26 75.65 11.90 Z" />
<path fill="#ffffff" opacity="1.00" d=" M 42.03 19.61 C 43.08 18.09 44.14 16.58 45.21 15.08 C 46.88 16.09 48.52 17.14 50.15 18.20 C 49.08 19.89 47.97 21.55 46.84 23.21 C 45.19 22.07 43.58 20.88 42.03 19.61 Z" />
<path fill="#ffffff" opacity="1.00" d=" M 110.09 18.29 C 111.53 17.19 113.20 16.42 114.81 15.60 C 115.59 17.31 117.08 18.89 117.14 20.83 C 115.75 21.89 114.21 22.74 112.72 23.64 C 111.82 21.94 109.78 20.32 110.09 18.29 Z" />
<path fill="#ffffff" opacity="1.00" d=" M 69.60 37.86 C 71.35 30.76 76.01 24.89 80.06 18.95 C 84.04 24.70 88.26 30.48 90.60 37.13 C 97.71 33.79 104.13 28.95 111.63 26.50 C 110.74 32.05 109.42 37.51 108.28 43.01 C 89.27 42.99 70.25 43.01 51.23 42.99 C 50.10 37.35 48.75 31.76 47.80 26.09 C 55.34 29.48 62.31 33.99 69.60 37.86 Z" />
<path fill="#ffffff" opacity="1.00" d=" M 36.78 47.00 C 65.59 47.00 94.41 47.00 123.22 47.00 C 122.04 53.67 120.83 60.32 119.66 66.99 C 93.22 67.00 66.78 67.01 40.34 66.99 C 39.17 60.32 37.96 53.67 36.78 47.00 Z" />
<path fill="#ffffff" opacity="1.00" d=" M 52.00 71.00 C 70.67 71.00 89.33 71.00 108.00 71.00 C 108.00 73.67 108.00 76.33 108.00 79.00 C 89.33 79.00 70.67 79.00 52.00 79.00 C 52.00 76.33 52.00 73.67 52.00 71.00 Z" />
<path fill="#ffffff" opacity="1.00" d=" M 65.92 83.00 C 75.31 83.00 84.69 83.00 94.08 83.00 C 94.08 86.67 94.08 90.33 94.08 94.00 C 84.69 94.00 75.30 94.00 65.92 94.00 C 65.92 90.33 65.92 86.67 65.92 83.00 Z" />
<path fill="#ffffff" opacity="1.00" d=" M 52.00 98.00 C 70.67 98.00 89.33 98.00 108.00 98.00 C 108.00 100.67 108.00 103.33 108.00 106.00 C 89.33 106.00 70.67 106.00 52.00 106.00 C 52.00 103.33 52.00 100.67 52.00 98.00 Z" />
<path fill="#ffffff" opacity="1.00" d=" M 58.08 110.00 C 72.69 110.00 87.31 110.00 101.92 110.00 C 105.75 117.33 109.57 124.66 113.39 131.99 C 91.13 132.00 68.87 132.00 46.61 131.99 C 50.42 124.66 54.26 117.33 58.08 110.00 Z" />
<path fill="#ffffff" opacity="1.00" d=" M 36.00 136.00 C 65.33 136.00 94.67 136.00 124.00 136.00 C 124.00 138.67 124.00 141.33 124.00 144.00 C 94.67 144.00 65.33 144.00 36.00 144.00 C 36.00 141.33 36.00 138.67 36.00 136.00 Z" />
</g>
</svg>
